X:4
T:Miss Katy Trotter
M:4/4
L:1/8
C:R. Mackintosh
R:Reel
K:G
c|"G"BABG DGBd|"D"cBAG FAAc|"G"BGBd "Am"cAce|"D"fadf "G"gGG:||!
g|"D"f2dg "G"BgdB|"C"ce "G"Bd "D"Aaag|"D"f/g/a df "G"gdBG|"C"ce "D"ac "G
"
BGGg|!
"D"f2dg "G"BgdB|"C"ce "G"Bd "D"Aaag|"D"fa "G"gb "D"af "C"gc|"D"BdAc "G"B
G
G||
